X:44
T:Come West along the Road
Z: id:dc-reel-41
M:C
L:1/8
K:G Major
d2BG dGBG|G2Bd efge|d2BG dGBG|ABcd edBd:|!
g2bg egdg|egdg edBd|g2bg egdB|ABcd edBd|!
g2bg egdg|egdg edBd|gabg efge|dega bage|]!

